svg/fluentui-system-icons/ic_fluent_circle_image_16_filled.svg

<svg width="16" height="16" viewBox="0 0 16 16" fill="none" xmlns="http://www.w3.org/2000/svg">
<path d="M8 5H10.7439C10.1262 3.25221 8.45933 2 6.5 2C4.01472 2 2 4.01472 2 6.5C2 8.45933 3.25221 10.1262 5 10.7439V8C5 6.34315 6.34315 5 8 5ZM8 6C6.89543 6 6 6.89543 6 8V12C6 12.3709 6.10096 12.7182 6.27691 13.016L8.76256 10.5303C9.44598 9.84691 10.554 9.84691 11.2374 10.5303L13.7231 13.016C13.899 12.7182 14 12.3709 14 12V8C14 6.89543 13.1046 6 12 6H8ZM8 14C7.6291 14 7.28177 13.899 6.98402 13.7231L9.46967 11.2374C9.76256 10.9445 10.2374 10.9445 10.5303 11.2374L13.016 13.7231C12.7182 13.899 12.3709 14 12 14H8ZM11.5 9.25C11.0858 9.25 10.75 8.91421 10.75 8.5C10.75 8.08579 11.0858 7.75 11.5 7.75C11.9142 7.75 12.25 8.08579 12.25 8.5C12.25 8.91421 11.9142 9.25 11.5 9.25Z" fill="#212121"/>
</svg>

<svg xmlns="http://www.w3.org/2000/svg" width="16" height="16"><path d="M8 5h2.744A4.502 4.502 0 0 0 2 6.5a4.502 4.502 0 0 0 3 4.244V8a3 3 0 0 1 3-3Zm0 1a2 2 0 0 0-2 2v4c0 .37.101.718.277 1.016l2.486-2.486a1.75 1.75 0 0 1 2.474 0l2.486 2.486C13.9 12.718 14 12.371 14 12V8a2 2 0 0 0-2-2H8Zm0 8c-.37 0-.718-.101-1.016-.277l2.486-2.486a.75.75 0 0 1 1.06 0l2.486 2.486A1.991 1.991 0 0 1 12 14H8Zm3.5-4.75a.75.75 0 1 1 0-1.5.75.75 0 0 1 0 1.5Z"/></svg>
